svg/color/cusdtbull.svg

<?xml version="1.0" encoding="UTF-8" ?>
<!DOCTYPE svg PUBLIC "-//W3C//DTD SVG 1.1//EN" "http://www.w3.org/Graphics/SVG/1.1/DTD/svg11.dtd">
<svg width="250pt" height="215pt" viewBox="0 0 250 215" version="1.1" xmlns="http://www.w3.org/2000/svg">
<g id="#feffffff">
<path fill="#feffff" opacity="1.00" d=" M 0.00 0.00 L 250.00 0.00 L 250.00 215.00 L 0.00 215.00 L 0.00 0.00 M 75.48 9.54 C 73.12 12.21 70.19 15.09 70.52 18.98 C 70.57 32.02 70.56 45.07 70.53 58.12 C 70.29 62.24 73.37 67.12 77.96 66.57 C 127.64 66.59 177.34 66.57 227.02 66.58 C 230.19 67.02 232.42 64.66 234.48 62.68 C 234.57 47.78 234.52 32.87 234.55 17.97 C 234.94 14.39 232.24 11.40 229.26 9.87 C 225.89 9.15 222.41 9.57 219.00 9.50 C 171.16 9.55 123.32 9.48 75.48 9.54 M 12.05 80.61 C 7.13 89.24 9.09 99.53 8.70 108.99 C 8.23 117.33 9.63 125.60 9.59 133.93 C 12.21 135.24 14.94 136.57 17.95 136.46 C 30.30 136.47 42.64 136.38 54.99 136.49 C 58.07 136.41 62.07 136.34 63.93 133.41 C 65.71 129.90 65.35 125.82 65.42 122.00 C 65.27 111.30 65.47 100.60 65.37 89.91 C 65.39 86.04 63.34 81.31 59.04 80.80 C 51.41 79.83 43.71 79.53 36.03 79.68 C 28.01 79.29 20.07 80.91 12.05 80.61 M 71.59 88.89 C 71.52 101.59 71.68 114.29 71.53 126.99 C 71.67 129.33 71.28 132.09 73.06 133.94 C 74.75 135.95 77.46 136.54 79.97 136.47 C 110.65 136.40 141.32 136.45 171.99 136.43 C 175.92 136.38 179.89 136.76 183.80 136.20 C 186.09 135.45 187.65 133.44 189.42 131.90 C 189.44 118.60 189.33 105.30 189.48 92.00 C 189.46 89.26 189.56 86.21 187.67 83.98 C 185.01 80.38 180.21 79.65 176.03 79.66 C 144.66 79.74 113.30 79.68 81.94 79.69 C 76.75 79.26 71.53 83.58 71.59 88.89 M 75.37 154.38 C 75.22 170.79 75.17 187.20 75.41 203.61 C 91.46 203.74 107.51 203.72 123.55 203.62 C 123.83 187.21 123.77 170.79 123.60 154.39 C 107.52 154.28 91.45 154.28 75.37 154.38 Z" />
</g>
<g id="#aeecf4ff">
<path fill="#aeecf4" opacity="1.00" d=" M 75.48 9.54 C 123.32 9.48 171.16 9.55 219.00 9.50 C 222.41 9.57 225.89 9.15 229.26 9.87 C 232.24 11.40 234.94 14.39 234.55 17.97 C 234.52 32.87 234.57 47.78 234.48 62.68 C 232.42 64.66 230.19 67.02 227.02 66.58 C 177.34 66.57 127.64 66.59 77.96 66.57 C 73.37 67.12 70.29 62.24 70.53 58.12 C 70.56 45.07 70.57 32.02 70.52 18.98 C 70.19 15.09 73.12 12.21 75.48 9.54 M 73.63 19.87 C 73.58 30.91 73.73 41.96 73.59 53.01 C 73.68 56.46 73.42 60.43 75.83 63.23 C 76.79 64.53 78.53 64.38 79.96 64.50 C 128.33 64.49 176.71 64.46 225.09 64.51 C 226.53 64.38 228.28 64.60 229.32 63.36 C 231.71 60.86 231.43 57.16 231.51 53.97 C 231.37 42.27 231.53 30.57 231.46 18.88 C 231.80 16.09 229.35 14.39 227.72 12.55 C 178.44 12.64 129.17 12.57 79.90 12.58 C 75.98 12.21 73.37 16.33 73.63 19.87 Z" />
<path fill="#aeecf4" opacity="1.00" d=" M 12.05 80.61 C 20.07 80.91 28.01 79.29 36.03 79.68 C 43.71 79.53 51.41 79.83 59.04 80.80 C 63.34 81.31 65.39 86.04 65.37 89.91 C 65.47 100.60 65.27 111.30 65.42 122.00 C 65.35 125.82 65.71 129.90 63.93 133.41 C 62.07 136.34 58.07 136.41 54.99 136.49 C 42.64 136.38 30.30 136.47 17.95 136.46 C 14.94 136.57 12.21 135.24 9.59 133.93 C 9.63 125.60 8.23 117.33 8.70 108.99 C 9.09 99.53 7.13 89.24 12.05 80.61 M 13.38 86.34 C 13.58 100.85 13.33 115.37 13.52 129.88 C 14.26 130.76 15.00 131.65 15.74 132.54 C 29.60 132.53 43.47 132.66 57.33 132.51 C 60.12 132.60 60.46 129.09 60.52 127.01 C 60.58 116.01 60.38 105.01 60.58 94.02 C 60.66 91.10 60.32 88.20 59.67 85.37 C 46.79 85.38 33.91 85.48 21.03 85.32 C 18.44 85.29 15.89 85.74 13.38 86.34 Z" />
<path fill="#aeecf4" opacity="1.00" d=" M 71.59 88.89 C 71.53 83.58 76.75 79.26 81.94 79.69 C 113.30 79.68 144.66 79.74 176.03 79.66 C 180.21 79.65 185.01 80.38 187.67 83.98 C 189.56 86.21 189.46 89.26 189.48 92.00 C 189.33 105.30 189.44 118.60 189.42 131.90 C 187.65 133.44 186.09 135.45 183.80 136.20 C 179.89 136.76 175.92 136.38 171.99 136.43 C 141.32 136.45 110.65 136.40 79.97 136.47 C 77.46 136.54 74.75 135.95 73.06 133.94 C 71.28 132.09 71.67 129.33 71.53 126.99 C 71.68 114.29 71.52 101.59 71.59 88.89 M 75.50 90.96 C 75.58 102.64 75.59 114.33 75.50 126.01 C 75.14 128.83 76.19 131.43 78.15 133.42 C 112.91 133.24 147.68 133.34 182.44 133.37 C 185.69 128.53 185.32 122.52 185.32 116.97 C 185.20 108.28 185.39 99.59 185.30 90.91 C 185.41 88.51 184.00 86.51 182.85 84.54 C 147.57 84.71 112.29 84.62 77.01 84.58 C 76.13 86.60 75.43 88.73 75.50 90.96 Z" />
<path fill="#aeecf4" opacity="1.00" d=" M 75.37 154.38 C 91.45 154.28 107.52 154.28 123.60 154.39 C 123.77 170.79 123.83 187.21 123.55 203.62 C 107.51 203.72 91.46 203.74 75.41 203.61 C 75.17 187.20 75.22 170.79 75.37 154.38 Z" />
</g>
<g id="#5fcadeff">
<path fill="#5fcade" opacity="1.00" d=" M 73.63 19.87 C 73.37 16.33 75.98 12.21 79.90 12.58 C 129.17 12.57 178.44 12.64 227.72 12.55 C 229.35 14.39 231.80 16.09 231.46 18.88 C 231.53 30.57 231.37 42.27 231.51 53.97 C 231.43 57.16 231.71 60.86 229.32 63.36 C 228.28 64.60 226.53 64.38 225.09 64.51 C 176.71 64.46 128.33 64.49 79.96 64.50 C 78.53 64.38 76.79 64.53 75.83 63.23 C 73.42 60.43 73.68 56.46 73.59 53.01 C 73.73 41.96 73.58 30.91 73.63 19.87 M 76.49 16.43 C 76.48 31.12 76.34 45.82 76.56 60.51 C 80.03 60.60 83.50 60.66 86.97 60.66 C 134.13 60.54 181.30 60.78 228.46 60.54 C 228.70 45.83 228.56 31.12 228.55 16.41 C 177.86 16.26 127.17 16.21 76.49 16.43 Z" />
<path fill="#5fcade" opacity="1.00" d=" M 75.50 90.96 C 75.43 88.73 76.13 86.60 77.01 84.58 C 112.29 84.62 147.57 84.71 182.85 84.54 C 184.00 86.51 185.41 88.51 185.30 90.91 C 185.39 99.59 185.20 108.28 185.32 116.97 C 185.32 122.52 185.69 128.53 182.44 133.37 C 147.68 133.34 112.91 133.24 78.15 133.42 C 76.19 131.43 75.14 128.83 75.50 126.01 C 75.59 114.33 75.58 102.64 75.50 90.96 Z" />
<path fill="#5fcade" opacity="1.00" d=" M 13.38 86.34 C 15.89 85.74 18.44 85.29 21.03 85.32 C 33.91 85.48 46.79 85.38 59.67 85.37 C 60.32 88.20 60.66 91.10 60.58 94.02 C 60.38 105.01 60.58 116.01 60.52 127.01 C 60.46 129.09 60.12 132.60 57.33 132.51 C 43.47 132.66 29.60 132.53 15.74 132.54 C 15.00 131.65 14.26 130.76 13.52 129.88 C 13.33 115.37 13.58 100.85 13.38 86.34 Z" />
</g>
<g id="#02a5c2ff">
<path fill="#02a5c2" opacity="1.00" d=" M 76.49 16.43 C 127.17 16.21 177.86 16.26 228.55 16.41 C 228.56 31.12 228.70 45.83 228.46 60.54 C 181.30 60.78 134.13 60.54 86.97 60.66 C 83.50 60.66 80.03 60.60 76.56 60.51 C 76.34 45.82 76.48 31.12 76.49 16.43 Z" />
</g>
</svg>

<?xml version="1.0" encoding="utf-8"?>
<!-- Generator: Adobe Illustrator 26.0.3, SVG Export Plug-In . SVG Version: 6.00 Build 0)  -->
<svg version="1.1" id="Layer_1" xmlns="http://www.w3.org/2000/svg" xmlns:xlink="http://www.w3.org/1999/xlink" x="0px" y="0px"
	 viewBox="0 0 250 215" style="enable-background:new 0 0 250 215;" xml:space="preserve">
<style type="text/css">
	.st0{fill:#AEECF4;}
	.st1{fill:#5FCADE;}
	.st2{fill:#02A5C2;}
</style>
<g id="_x23_aeecf4ff">
	<path class="st0" d="M75.5,9.5c47.8-0.1,95.7,0,143.5,0c3.4,0.1,6.9-0.4,10.3,0.4c3,1.5,5.7,4.5,5.3,8.1c0,14.9,0,29.8-0.1,44.7
		c-2.1,2-4.3,4.3-7.5,3.9c-49.7,0-99.4,0-149.1,0c-4.6,0.6-7.7-4.3-7.4-8.5c0-13,0-26.1,0-39.1C70.2,15.1,73.1,12.2,75.5,9.5
		 M73.6,19.9c0,11,0.1,22.1,0,33.1c0.1,3.5-0.2,7.4,2.2,10.2c1,1.3,2.7,1.1,4.1,1.3c48.4,0,96.8,0,145.1,0c1.4-0.1,3.2,0.1,4.2-1.2
		c2.4-2.5,2.1-6.2,2.2-9.4c-0.1-11.7,0-23.4,0-35.1c0.3-2.8-2.1-4.5-3.7-6.3c-49.3,0.1-98.6,0-147.8,0C76,12.2,73.4,16.3,73.6,19.9z
		"/>
	<path class="st0" d="M12.1,80.6c8,0.3,16-1.3,24-0.9c7.7-0.2,15.4,0.2,23,1.1c4.3,0.5,6.3,5.2,6.3,9.1c0.1,10.7-0.1,21.4,0,32.1
		c-0.1,3.8,0.3,7.9-1.5,11.4c-1.9,2.9-5.9,3-8.9,3.1c-12.4-0.1-24.7,0-37,0c-3,0.1-5.7-1.2-8.4-2.5c0-8.3-1.4-16.6-0.9-24.9
		C9.1,99.5,7.1,89.2,12.1,80.6 M13.4,86.3c0.2,14.5-0.1,29,0.1,43.5c0.7,0.9,1.5,1.8,2.2,2.7c13.9,0,27.7,0.1,41.6,0
		c2.8,0.1,3.1-3.4,3.2-5.5c0.1-11-0.1-22,0.1-33c0.1-2.9-0.3-5.8-0.9-8.6c-12.9,0-25.8,0.1-38.6-0.1C18.4,85.3,15.9,85.7,13.4,86.3z
		"/>
	<path class="st0" d="M71.6,88.9c-0.1-5.3,5.2-9.6,10.4-9.2c31.4,0,62.7,0,94.1,0c4.2,0,9,0.7,11.6,4.3c1.9,2.2,1.8,5.3,1.8,8
		c-0.1,13.3,0,26.6-0.1,39.9c-1.8,1.5-3.3,3.6-5.6,4.3c-3.9,0.6-7.9,0.2-11.8,0.2c-30.7,0-61.3,0-92,0c-2.5,0.1-5.2-0.5-6.9-2.5
		c-1.8-1.9-1.4-4.6-1.5-7C71.7,114.3,71.5,101.6,71.6,88.9 M75.5,91c0.1,11.7,0.1,23.4,0,35.1c-0.4,2.8,0.7,5.4,2.7,7.4
		c34.8-0.2,69.5-0.1,104.3-0.1c3.2-4.8,2.9-10.8,2.9-16.4c-0.1-8.7,0.1-17.4,0-26.1c0.1-2.4-1.3-4.4-2.4-6.4
		c-35.3,0.2-70.6,0.1-105.8,0C76.1,86.6,75.4,88.7,75.5,91z"/>
	<path class="st0" d="M75.4,154.4c16.1-0.1,32.1-0.1,48.2,0c0.2,16.4,0.2,32.8,0,49.2c-16,0.1-32.1,0.1-48.1,0
		C75.2,187.2,75.2,170.8,75.4,154.4z"/>
</g>
<g id="_x23_5fcadeff">
	<path class="st1" d="M73.6,19.9c-0.3-3.5,2.4-7.7,6.3-7.3c49.3,0,98.5,0.1,147.8,0c1.6,1.8,4.1,3.5,3.7,6.3
		c0.1,11.7-0.1,23.4,0,35.1c-0.1,3.2,0.2,6.9-2.2,9.4c-1,1.2-2.8,1-4.2,1.2c-48.4-0.1-96.8,0-145.1,0c-1.4-0.1-3.2,0-4.1-1.3
		c-2.4-2.8-2.2-6.8-2.2-10.2C73.7,42,73.6,30.9,73.6,19.9 M76.5,16.4c0,14.7-0.2,29.4,0.1,44.1c3.5,0.1,6.9,0.2,10.4,0.2
		c47.2-0.1,94.3,0.1,141.5-0.1c0.2-14.7,0.1-29.4,0.1-44.1C177.9,16.3,127.2,16.2,76.5,16.4z"/>
	<path class="st1" d="M75.5,91c-0.1-2.2,0.6-4.4,1.5-6.4c35.3,0,70.6,0.1,105.8,0c1.1,2,2.6,4,2.4,6.4c0.1,8.7-0.1,17.4,0,26.1
		c0,5.5,0.4,11.6-2.9,16.4c-34.8,0-69.5-0.1-104.3,0.1c-2-2-3-4.6-2.7-7.4C75.6,114.3,75.6,102.6,75.5,91z"/>
	<path class="st1" d="M13.4,86.3c2.5-0.6,5.1-1,7.7-1c12.9,0.2,25.8,0.1,38.6,0.1c0.7,2.8,1,5.7,0.9,8.6c-0.2,11,0,22-0.1,33
		c-0.1,2.1-0.4,5.6-3.2,5.5c-13.9,0.2-27.7,0-41.6,0c-0.7-0.9-1.5-1.8-2.2-2.7C13.3,115.4,13.6,100.8,13.4,86.3z"/>
</g>
<g id="_x23_02a5c2ff">
	<path class="st2" d="M76.5,16.4c50.7-0.2,101.4-0.2,152.1,0c0,14.7,0.1,29.4-0.1,44.1c-47.2,0.2-94.3,0-141.5,0.1
		c-3.5,0-6.9-0.1-10.4-0.2C76.3,45.8,76.5,31.1,76.5,16.4z"/>
</g>
</svg>
